!!! OTL: Berkowitz344
!!! Chapter: 1
!!! Section: III
!!! Page: 84
!!! Mode: 
!!! Encoder: DJB
**kern
*staff1
*I"Piano
=1-
*clefC3
*k[b-e-]
*B-:
*M6/8
8d\L
8e-\
8f\J
4B-/
8b-\
=2
8.a\L
16b-\K
8cc\J
4f\
8f#\
=3
8g\L
8e-\
8c\J
8A\L
8g\
8f\J
=4
4.e-\
8d\
8r
16f\LL
16g\JJ
=5
8a\L
8f\
8d\J
4B-/
[8a\
=6
8a\L]
8g\
8f#\J
8g\L
8e-\
8c\J
=7
!!linebreak:original
8A/
8r
8g\
8f\
8r
8e-\
=8
8.d\L
16e-\K
8c\J
4.B-/
==
*-
